X:1
T:Title
%%score { ( 1 3 ) | ( 2 4 ) }
L:1/8
M:4/4
K:F
V:1 treble nm="Grand Piano"
V:3 treble 
V:2 bass 
V:4 bass 
V:1
 z4 z2 z[Q:1/4=96] F | AA[FA]G G2 FA | c>c cd c3 A | [CF][CF][CF][CEG] A2 FA | %4
 AG [EG]>[_E^F] [=EG]3 [EB] | [FA][FA][FA]G G2 FA | c>c cd c3 c | %7
[M:17/16] dd[FB][Fd][CFc]-<[CFc][CF]3/2[DFG] |[M:7/8] [CFA][CFA][CFA]>[B,EG] [A,F]3 | %9
[M:1/8] [A,CF] |[M:4/4] [EG][EG][EG][FA] [EB]2 [EG]2 | AAAd c4 | [EG][EG][EG][FA] [EB]2 [EG]2 | %13
 AAAd c4 | [Fd][Fd][DFB][Fd] [Fc]2 [FA]2 | [EB][EB][Ec][EB] [CFA]3 [B,EG] | %16
[M:17/16] z/ z/ z/ z/ z/ z/ z c-<c z/ z/ z/ z |[M:7/8] [Fc][A,F][CFA]>[B,EG] [A,F]3 |] %18
V:2
 z4 z2 z [F,A,C] | [F,CF][F,CF][C,C][C,B,C] [F,B,C]2 [F,A,C][F,CF] | %2
 [F,A,F]>[F,A,F] [F,A,F][F,B,F] [F,A,F]3 [F,CF] | A,,A,,A,,C, [F,CF]2 [F,A,C][K:treble][F,CF] | %4
 [G,=B,F][G,B,F][K:bass] [C,C]>[C,C] [C,C]3 [C,C] | %5
 [F,C][F,C][C,C][C,B,C] [F,B,C]2 [F,A,C][K:treble][F,CF] | %6
 [F,A,F]>[F,A,F] [F,A,F][F,B,F] [F,A,F]3 [F,A,F] | %7
[M:17/16] [B,F][K:bass][F,B,F][D,B,][B,,B,]A,,-<A,,A,,3/2B,, |[M:7/8] C,C,C,>C, F,3 |[M:1/8] F, | %10
[M:4/4] [C,C][C,C][C,C][C,C] [C,C]2 [C,C]2 | [F,CF][F,CF][F,CF][F,B,F] [F,A,F]4 | %12
 [C,C][C,C][C,C][C,C] [C,C]2 [C,C]2 | [F,CF][F,CF][F,CF][F,B,F] [F,A,F]4 | %14
 [B,,B,][B,,B,]B,,[B,,B,] [F,A,]2 [F,C]2 | [C,C][C,C][C,C][C,C] F,3 C, | %16
[M:17/16] z/ z/ z/ z/[K:treble] z/ z/ z [A,F]-<[A,F] z/ z/ z/[K:bass] z | %17
[M:7/8] [C,A,]D,C,>C, F,3 |] %18
V:3
 x8 | x8 | x8 | x8 | x8 | x8 | x8 |[M:17/16] x17/2 |[M:7/8] x7 |[M:1/8] x |[M:4/4] x8 | x8 | x8 | %13
 x8 | x8 | x8 |[M:17/16] [A,F][CEG]AB z Ef3/2[Fd] |[M:7/8] x7 |] %18
V:4
 x8 | x8 | x8 | x7[K:treble] x | x2[K:bass] x6 | x7[K:treble] x | x8 |[M:17/16] x[K:bass] x15/2 | %8
[M:7/8] x7 |[M:1/8] x |[M:4/4] x8 | x8 | x8 | x8 | x8 | x8 | %16
[M:17/16] F,C,[K:treble][F,CF][G,CE]C z [B,DF]3/2[K:bass][B,,B,] |[M:7/8] x7 |] %18

